packages/amis-editor/src/icons/btn/button.svg

<?xml version="1.0" encoding="UTF-8"?>
<svg width="16px" height="16px" viewBox="0 0 16 16" version="1.1" xmlns="http://www.w3.org/2000/svg" xmlns:xlink="http://www.w3.org/1999/xlink">
    <g id="按钮" stroke="none" stroke-width="1" fill="none" fill-rule="evenodd">
        <rect id="矩形" stroke="currentColor" stroke-linejoin="round" x="1.5" y="2.5" width="13" height="11"></rect>
        <path d="M4.8975,9.785 C5.2775,9.785 5.5775,9.715 5.7875,9.575 C6.0325,9.405 6.1575,9.14 6.1575,8.78 C6.1575,8.54 6.0975,8.345 5.9825,8.205 C5.8625,8.06 5.6875,7.965 5.4525,7.92 C5.6325,7.85 5.7675,7.755 5.8625,7.625 C5.9575,7.485 6.0075,7.315 6.0075,7.115 C6.0075,6.845 5.9125,6.63 5.7275,6.47 C5.5275,6.3 5.2475,6.215 4.8925,6.215 L3.2575,6.215 L3.2575,9.785 L4.8975,9.785 Z M4.7375,7.715 L3.8425,7.715 L3.8425,6.695 L4.7475,6.695 C4.9875,6.695 5.1575,6.735 5.2675,6.815 C5.3675,6.89 5.4225,7.015 5.4225,7.185 C5.4225,7.37 5.3675,7.505 5.2675,7.59 C5.1625,7.67 4.9875,7.715 4.7375,7.715 Z M4.8125,9.305 L3.8425,9.305 L3.8425,8.195 L4.8275,8.195 C5.0875,8.195 5.2775,8.24 5.3975,8.33 C5.5125,8.42 5.5725,8.565 5.5725,8.77 C5.5725,8.97 5.4925,9.11 5.3325,9.2 C5.2075,9.27 5.0325,9.305 4.8125,9.305 Z M8.1875,9.785 L8.1875,6.715 L9.3575,6.715 L9.3575,6.215 L6.4325,6.215 L6.4325,6.715 L7.6025,6.715 L7.6025,9.785 L8.1875,9.785 Z M10.3675,9.785 L10.3675,7.175 L10.3875,7.175 L12.1725,9.785 L12.7425,9.785 L12.7425,6.215 L12.1525,6.215 L12.1525,8.79 L12.1325,8.79 L10.3675,6.215 L9.7825,6.215 L9.7825,9.785 L10.3675,9.785 Z" id="BTN" stroke="currentColor" stroke-width="0.1" fill="currentColor" fill-rule="nonzero"></path>
    </g>
</svg>

<svg width="16" height="16" xmlns="http://www.w3.org/2000/svg"><g fill="none" fill-rule="evenodd" stroke="currentColor"><path stroke-linejoin="round" d="M1.5 2.5h13v11h-13z"/><path d="M4.897 9.785c.38 0 .68-.07.89-.21.245-.17.37-.435.37-.795 0-.24-.06-.435-.175-.575-.12-.145-.295-.24-.53-.285a.881.881 0 0 0 .41-.295.888.888 0 0 0 .146-.51.811.811 0 0 0-.28-.645c-.2-.17-.48-.255-.835-.255H3.258v3.57h1.64Zm-.16-2.07h-.895v-1.02h.905c.24 0 .41.04.52.12.1.075.155.2.155.37 0 .185-.054.32-.154.405-.106.08-.28.125-.53.125Zm.075 1.59h-.97v-1.11h.985c.26 0 .45.045.57.135.115.09.175.235.175.44 0 .2-.08.34-.24.43-.125.07-.3.105-.52.105Zm3.375.48v-3.07h1.17v-.5H6.434v.5h1.17v3.07h.585Zm2.18 0v-2.61h.02l1.785 2.61h.57v-3.57h-.59V8.79h-.02l-1.764-2.575h-.585v3.57h.585Z" stroke-width=".1" fill="currentColor" fill-rule="nonzero"/></g></svg>
